X: 96
T: No_191_Song_of_Thanks_for_a_Pony.krn
N: Derived from No_191_Song_of_Thanks_for_a_Pony.krn
%%abc-version 2.0
%%abcx-abcm2ps-target-version 5.9.1 (29 Sep 2008)
%%abc-creator hum2abc beta
%%abcx-conversion-date 2019/03/15 08:29:13
%%humdrum-veritas 641790266
%%humdrum-veritas-data 3622789213
%%linebreak <none>
%%barnumbers 0
L: 1/8
M: 2/4
%%staves {1 2}
V: 1 clef=treble
V: 2 clef=bass
K: C
[V:1] [K:clef=treble][M:2/4]DFF2 | 
[V:2] [K:clef=bass][M:2/4]z G,, (3!accent!G,, z G,, | 
[V:1] A3/G/ AG | 
[V:2] (3!accent!G,, z G,, (3!accent!G,, z G,, | 
[V:1] FD {/E} (3DCD | 
[V:2] z4 | 
[V:1] CC A,C/C/ | 
[V:2] z4 | 
[V:1] D2D (3C/C/C/ | 
[V:2] z4 | 
[V:1] A,4 |]  
[V:2] z4 |]  



